src/pos-icons/iframe-braces.svg

<svg height="24" viewBox="0 0 24 24" width="24" xmlns="http://www.w3.org/2000/svg"><path d="m21 2h-18c-1.1 0-2 .9-2 2v16c0 1.1.9 2 2 2h18c1.1 0 2-.9 2-2v-16c0-1.1-.9-2-2-2m-10 9h-2v1.5c0 1.1-.9 2-2 2 1.1 0 2 .9 2 2v1.5h2v2h-2c-1.1 0-2-.9-2-2v-.5c0-1.1-.9-2-2-2v-2c1.1 0 2-.9 2-2v-.5c0-1.1.9-2 2-2h2zm8 4.5c-1.1 0-2 .9-2 2v.5c0 1.1-.9 2-2 2h-2v-2h2v-1.5c0-1.1.9-2 2-2-1.1 0-2-.9-2-2v-1.5h-2v-2h2c1.1 0 2 .9 2 2v.5c0 1.1.9 2 2 2zm2-8.5h-18v-3h18z"/></svg>

<?xml version="1.0" encoding="UTF-8"?><!DOCTYPE svg PUBLIC "-//W3C//DTD SVG 1.1//EN" "http://www.w3.org/Graphics/SVG/1.1/DTD/svg11.dtd"><svg xmlns="http://www.w3.org/2000/svg" xmlns:xlink="http://www.w3.org/1999/xlink" version="1.1" id="mdi-iframe-braces" width="24" height="24" viewBox="0 0 24 24"><path d="M21 2H3C1.9 2 1 2.9 1 4V20C1 21.1 1.9 22 3 22H21C22.1 22 23 21.1 23 20V4C23 2.9 22.1 2 21 2M11 11H9V12.5C9 13.6 8.1 14.5 7 14.5C8.1 14.5 9 15.4 9 16.5V18H11V20H9C7.9 20 7 19.1 7 18V17.5C7 16.4 6.1 15.5 5 15.5V13.5C6.1 13.5 7 12.6 7 11.5V11C7 9.9 7.9 9 9 9H11V11M19 15.5C17.9 15.5 17 16.4 17 17.5V18C17 19.1 16.1 20 15 20H13V18H15V16.5C15 15.4 15.9 14.5 17 14.5C15.9 14.5 15 13.6 15 12.5V11H13V9H15C16.1 9 17 9.9 17 11V11.5C17 12.6 17.9 13.5 19 13.5V15.5M21 7H3V4H21V7Z" /></svg>
